X:16
T:Bourre arte
O:France
A:Centre
R:Bourre  3 temps
M:3/4
L:1/8
Q:220
K:D
A|A/2G/2 FA|A/2G/2 FA|B/2A/2Bc|d2A|
A/2G/2 FA|A/2G/2 FA|B/2A/2B/2c/2B/2c/2|d2:|
D|E/2F/2GE|A/2G/2FA|B/2A/2Bc|d/2e/2dD|
E/2F/2GE|A/2G/2FA|B/2A/2Bc|d2:||
